X:1
T:James Gibb editions
T:Panis angelicus - Palestrina
T:#
%%score [ 1 2 3 4 ]
L:1/8
Q:1/4=90
M:4/4
K:D
V:1 treble nm="Soprano" snm="S"
V:2 treble nm="Alto" snm="A"
V:3 treble-8 nm="Tenor" snm="T"
V:4 bass nm="Bass" snm="B"
V:1
"^Panis angelicus""^G. P. da Palestrina\n(1525-94)" z8 | z8 | z8 | A4 c2 d2 | (e3 d c4 | %5
w: |||Pa- nis an-|ge\- * *|
 B2 A4 ^G2 |[M:4/4] A4 B4 | c2 d2 e3) e | A4 z2 e2 | d2 d2 (c4 | B4 c2 d2- | d2) c2 d4 | z8 | %13
w: ||* * * li-|cus fit|pa- nis ho\-||* mi- num;||
 A4 c2 d2 | (e6 d2- | d2 c2 B4 | A2) B2 c4- | c4 z4 | z4 z2 e2 | e2 d2 (c4 | B4 A2 F2 | B8) | %22
w: Dat pa- nis|coe\- *||* li- cus||fi\--|gu- ris ter\-|||
 B4 B4 | z2 B2 =c2 c2 | =c3 B B2 B2 | =c2 c2 c3 B | B4 z4 | z8 | B4 B2 B2 | B2 (A^G) A4 | %30
w: mi- num:|O res mi-|ra- bi- lis, O|res mi- ra- bi-|lis!||Man- du- cat|Do- mi\- * num|
 A4 A2 z2 | B4 B2 B2 | (B2 A4) ^G2 | A2 B2 c2 c2 | c3 B B2 B2 | c2 c2 c3 B | B4 z4 | z8 | z8 | z8 | %40
w: Pau- per,|ser- vus et|hu\- * mi-|lis, O res mi-|ra- bi- lis, O|res mi- ra- bi-|lis,||||
 A4 A2 z2 | A4 A2 B2 | (^G2 A4) G2 | A2 B2 c2 c2 | c3 B B2[Q:1/4=89] B2 | %45
w: Pau- per,|ser- vus et|hu\- * mi-|lis. O res mi-|ra- bi- lis, O|
[Q:1/4=87] c2[Q:1/4=85] c2[Q:1/4=84] (B2[Q:1/4=82] c2 | %46
w: res mi- ra\- *|
[Q:1/4=81] d2[Q:1/4=79] c2[Q:1/4=77] B3)[Q:1/4=76] B |[Q:1/4=76] c8 |] %48
w: * * * bi-|lis!|
V:2
 z8 | z4 E4 | F2 ^G2 (A3 G | F4 E2 D2 | C3) B, A,4 | z8 |[M:4/4] z8 | z2 A2 A2 ^G2 | (F4 E3) E | %9
w: |Pa-|nis an- ge\- *||* li- cus|||fit pa- nis|ho\- * mi-|
 F4 z4 | z2 B2 B2 A2 | (^G4 F4 | E4 D3) D | C4 z4 | E4 F2 ^G2 | (A6 ^G2 | F3) F E4 | E4 F4 | %18
w: num,|fit pa- nis|ho\- *|* * mi-|num;|Dat pa- nis|coe\- *|* li- cus,|dat pa-|
 ^G4 (A4 | G3) G A4 | z4 z2 A2 | A2 ^G2 F4- | F2 F2 ^G4 | z2 ^G2 A2 A2 | A3 ^G G2 G2 | %25
w: nis coe\-|* li- cus|fi-|gu- ris ter\-|* mi- num:|O res mi-|ra- bi- lis, O|
 A2 A2 A3 ^G | ^G4 z2 A2 | A2 A2 A2 (^GF) | ^G4 z4 | z8 | F4 F2 z2 | F4 F2 F2 | E6 E2 | %33
w: res mi- ra- bi-|lis! Man-|du- cat Do- mi\- *|num||Pau- per,|ser- vus et|hu- mi-|
 E2 ^G2 A2 A2 | A3 ^G G2 G2 | A2 A2 A3 ^G | ^G4 z2 G2 | ^G2 G2 G2 (FE) | F2 A2 A2 A2 | %39
w: lis, O res mi-|ra- bi- lis, O|res mi- ra- bi-|lis, man-|du- cat Do- mi\- *|num man- du- cat|
 A2 (^GF) G4 | E4 E2 z2 | F4 F2 F2 | E6 E2 | E2 ^G2 A2 A2 | A3 ^G G2 G2 | A2 A2 (^G2 A2 | %46
w: Do- mi\- * num|Pau- per,|ser- vus et|hu- mi-|lis. O res mi-|ra- bi- lis, O|res mi- ra\- *|
 B2 A4) ^G2 | A8 |] %48
w: * * bi-|lis!|
V:3
 A4 c2 d2 | (e3 d c3) c | B2 e2 c2 A2 | d3 d A4- | A4 A4 | B2 c2 (d2 e2 | %6
w: Pa- nis an-|ge\- * * li-|cus, pa- nis an-|ge- li- cus,|* pa-|nis an- ge\- *|
[M:4/4][K:treble-8] c4 d3) d | A4 z2 e2 | e2 d2 (c4 | B4 e3) e | e4 z4 | z4 z2 d2 | d2 c2 B3 B | %13
w: * * li-|cus fit|pa- nis ho\-|* * mi-|num,|fit|pa- nis ho- mi-|
 A8- | A4 z4 | z8 | z8 | A4 c2 d2 | (e3 d c3) c | B2 z2 z4 | z2 e2 e2 ^d2 | (e4- e2 ^dc | %22
w: num;||||Dat pa- nis|coe\- * * li-|cus|fi- gu- ris|ter\- * * *|
 ^d2) d2 e4 | z2 e2 =c2 A2 | e3 e e2 e2 | e2 e2 e3 e | e4 c4 | c2 c2 c2 (BA) | B2 d2 d2 d2 | %29
w: * mi- num:|O res mi-|ra- bi- lis, O|res mi- ra- bi-|lis! Man-|du- cat Do- mi\- *|num man- du- cat|
 d2 (cB) c4 | c4 c2 z2 | d4 d2 B2 | (^G2 A2 B3) B | A2 e2 e2 e2 | e3 e e2 e2 | e2 e2 e3 e | %36
w: Do- mi\- * num|Pau- per,|ser- vus et|hu\- * * mi-|lis, O res mi-|ra- bi- lis. O|res mi- ra- bi-|
 e4 z2 e2 | e2 e2 e2 (^dc) | ^d2 f2 f2 f2 | f2 (e^d) e4 | e4 e2 z2 | c4 c2 (d2- | d2 c2) B3 B | %43
w: lis, man-|du- cat Do- mi\- *|num man- du- cat|Do- mi\- * num|Pau- per,|ser- vus et|* * hu- mi-|
 c2 e2 e2 e2 | e3 e e2 e2 | e2 e2 e4- | e6 e2 | e8 |] %48
w: lis. O res mi-|ra- bi- lis, o|res mi- ra\-|* bi-|lis!|
V:4
 z8 | z8 | z8 | z8 | z8 | z8 |[M:4/4] z2 A,2 A,2 ^G,2 | F,3 F, E,4 | z8 | z2 B,2 B,2 A,2 | %10
w: ||||||fit pa- nis|ho- mi- num,||fit pa- nis|
 (^G,4 F,4 | E,4 D,E,F,^G, | A,6 ^G,2 | A,4 z4 | z8 | z4 E,4 | F,2 ^G,2 (A,4- | A,2 ^G,2 F,3) F, | %18
w: ho\- *||* mi-|num;||Dat|pa- nis coe\-|* * * li-|
 E,4 z4 | z4 A,4 | A,2 ^G,2 F,4 | E,4 B,4- | B,2) B,2 E,4 | z2 E,2 E,2 E,2 | E,3 E, E,2 E2 | %25
w: cus-|fi-|gu- ris ter\-||* mi- num:|O res mi-|ra- bi- lis, O|
 =C2 A,2 E,3 E, | E,4 A,4 | A,2 A,2 E,3 E, | E,4 z4 | z8 | F,4 F,2 z2 | D,4 D,2 ^D,2 | E,6 E,2 | %33
w: res mi- ra- bi-|lis! Man-|du- cat Do- mi-|num||Pau- per,|ser- vus et|hu- mi-|
 A,2 E2 C2 A,2 | E3 E, E,2 E2 | C2 A,2 E3 E, | E,4 z2 E,2 | E,2 E,2 B,2 B,2 | B,2 z2 z4 | z8 | %40
w: lis, O res mi-|ra- bi- lis, O|res mi- ra- bi-|lis, man-|du- cat Do- mi-|num||
 A,4 A,2 z2 | F,4 F,2 D,2 | E,6 E,2 | A,2 E2 C2 A,2 | E3 E E,2 E2 | C2 A,2 E,4- | E,6 E,2 | A,8 |] %48
w: Pau- per,|ser- vus et|hu- mi-|lis. O res mi-|ra- bi- lis, o|res mi- ra\-|* bi-|lis!|

